X:216
T:The Hay Fork Reel
R:reel
C:Bruce Osborne - Jan. 2003
Z:abc by bosborne@kos.net
M:2/4
L:1/8
K:Amaj
G,|A,C/E/ Ac/d/|e/c/f/c/ e/c/A/c/|e/a/g/a/ e/c/A/c/|B/A/G/F/ E/D/C/B,/|\
A,C/E/ Ac/d/|e/c/f/c/ e/c/A/c/|B/A/G/A/ B/d/c/B/|c/A/A/G/ A:|
|:c/d/|e/a/g/a/ f/e/c/f/|e/c/A/F/ EC/D/|E/A/c/f/ e/c/A/c/|B/A/G/A/ Bc/d/|\
e/a/g/a/ f/e/c/f/|e/c/A/F/ EC/D/|E/A/c/f/ e/c/A/c/|B/A/A/G/ A:|
